movekom_app/assets/icons/bluetoothImg.svg

<svg height="68.005" viewBox="0 0 43.07 68.005" width="43.07" xmlns="http://www.w3.org/2000/svg"><g fill="#94e538"><path d="m115.4 0a21.559 21.559 0 0 0 -21.533 21.535v24.935a21.535 21.535 0 1 0 43.07 0v-24.935a21.559 21.559 0 0 0 -21.537-21.535zm19.27 46.47a19.268 19.268 0 1 1 -38.536 0v-24.935a19.268 19.268 0 0 1 38.536 0z" transform="translate(-93.867)"/><path d="m184.509 124.84-8.5-9.442 8.5-9.442a1.134 1.134 0 0 0 0-1.511l-9.067-10.2a1.133 1.133 0 0 0 -1.981.753v17.572l-9.359-10.4a1.133 1.133 0 0 0 -1.684 1.517l10.543 11.713-10.538 11.709a1.133 1.133 0 0 0 1.684 1.517l9.359-10.4v17.574a1.134 1.134 0 0 0 1.981.753l9.067-10.2a1.132 1.132 0 0 0 -.005-1.513zm-8.777-26.863 6.413 7.215-6.413 7.126zm0 34.841v-14.341l6.413 7.126z" transform="translate(-153.064 -81.395)"/></g></svg>

<svg xmlns="http://www.w3.org/2000/svg" width="43.07" height="68.005" viewBox="0 0 43.07 68.005">
  <g id="Grupo_965" data-name="Grupo 965" transform="translate(-33 -65)">
    <g id="bluetooth" transform="translate(-60.867 65)">
      <g id="Grupo_837" data-name="Grupo 837" transform="translate(93.867)">
        <g id="Grupo_836" data-name="Grupo 836">
          <path id="Trazado_865" data-name="Trazado 865" d="M115.4,0A21.559,21.559,0,0,0,93.867,21.535V46.47a21.535,21.535,0,1,0,43.07,0V21.535A21.559,21.559,0,0,0,115.4,0ZM134.67,46.47a19.268,19.268,0,1,1-38.536,0V21.535a19.268,19.268,0,0,1,38.536,0Z" transform="translate(-93.867)" fill="#94e538"/>
        </g>
      </g>
      <g id="Grupo_839" data-name="Grupo 839" transform="translate(102.934 12.467)">
        <g id="Grupo_838" data-name="Grupo 838">
          <path id="Trazado_866" data-name="Trazado 866" d="M184.509,124.84l-8.5-9.442,8.5-9.442a1.134,1.134,0,0,0,0-1.511l-9.067-10.2a1.133,1.133,0,0,0-1.981.753V112.57l-9.359-10.4a1.133,1.133,0,0,0-1.684,1.517L172.961,115.4l-10.538,11.709a1.133,1.133,0,0,0,1.684,1.517l9.359-10.4V135.8a1.134,1.134,0,0,0,1.981.753l9.067-10.2A1.132,1.132,0,0,0,184.509,124.84Zm-8.777-26.863,6.413,7.215-6.413,7.126Zm0,34.841V118.477l6.413,7.126Z" transform="translate(-162.131 -93.862)" fill="#94e538"/>
        </g>
      </g>
    </g>
  </g>
</svg>
